src/assets/duotone/Coffee.svg

<svg width="24" height="24" viewBox="0 0 24 24"  xmlns="http://www.w3.org/2000/svg">
<path opacity="0.6" d="M17.79 10.4698V11.9998H2V10.4698C2 8.14977 3.89 6.25977 6.21 6.25977H13.58C15.9 6.25977 17.79 8.14977 17.79 10.4698Z" />
<path opacity="0.4" d="M17.79 12V17.79C17.79 20.11 15.9 22 13.58 22H6.21C3.89 22 2 20.11 2 17.79V12H17.79Z" />
<path d="M5.5 5.12012C5.09 5.12012 4.75 4.78012 4.75 4.37012V2.62012C4.75 2.21012 5.09 1.87012 5.5 1.87012C5.91 1.87012 6.25 2.21012 6.25 2.62012V4.37012C6.25 4.79012 5.91 5.12012 5.5 5.12012Z" />
<path d="M9.5 5.12012C9.09 5.12012 8.75 4.78012 8.75 4.37012V2.62012C8.75 2.21012 9.09 1.87012 9.5 1.87012C9.91 1.87012 10.25 2.21012 10.25 2.62012V4.37012C10.25 4.79012 9.91 5.12012 9.5 5.12012Z" />
<path d="M13.5 5.12012C13.09 5.12012 12.75 4.78012 12.75 4.37012V2.62012C12.75 2.21012 13.09 1.87012 13.5 1.87012C13.91 1.87012 14.25 2.21012 14.25 2.62012V4.37012C14.25 4.79012 13.91 5.12012 13.5 5.12012Z" />
<path d="M21.6498 14.3199C21.6498 16.4699 19.9098 18.2099 17.7598 18.2099V10.4199C19.8998 10.4199 21.6498 12.1699 21.6498 14.3199Z" />
</svg>

<?xml version="1.0" encoding="UTF-8"?>
<svg width="24" height="24" viewBox="0 0 24 24" xmlns="http://www.w3.org/2000/svg">
 <path d="m17.79 10.47v1.53h-15.79v-1.53c0-2.32 1.89-4.21 4.21-4.21h7.37c2.32 0 4.21 1.89 4.21 4.21z" opacity=".6"/>
 <path d="M17.79 12V17.79C17.79 20.11 15.9 22 13.58 22H6.21C3.89 22 2 20.11 2 17.79V12H17.79Z" opacity=".4"/>
 <path d="m5.5 5.1201c-0.41 0-0.75-0.34-0.75-0.75v-1.75c0-0.41 0.34-0.75 0.75-0.75s0.75 0.34 0.75 0.75v1.75c0 0.42-0.34 0.75-0.75 0.75z"/>
 <path d="m9.5 5.1201c-0.41 0-0.75-0.34-0.75-0.75v-1.75c0-0.41 0.34-0.75 0.75-0.75s0.75 0.34 0.75 0.75v1.75c0 0.42-0.34 0.75-0.75 0.75z"/>
 <path d="m13.5 5.1201c-0.41 0-0.75-0.34-0.75-0.75v-1.75c0-0.41 0.34-0.75 0.75-0.75s0.75 0.34 0.75 0.75v1.75c0 0.42-0.34 0.75-0.75 0.75z"/>
 <path d="m21.65 14.32c0 2.15-1.74 3.89-3.89 3.89v-7.79c2.14 0 3.89 1.75 3.89 3.9z"/>
</svg>
